!! "Kham Hom (Sweet Words)" Example 3 from Section I (Siamese) from
!! Archibald T. Davison & Willi Apel "Historical Anthology of Music"
!! Vol. 1, Harvard University Press
!! NOTE: The Gong and Timpani parts have not been encoded:
!!
!! Xylo4	Xylo3	Xylo2	Xylo1	Flute2	Flute1	Bell4	Bell3	Bell2	Bell1
!! .	.	.	.	.	.	.	.	.	.
!! (Cambridge) -1947; p. 4-5;
**kern	**kern	**kern	**kern	**kern	**kern	**kern	**kern	**kern	**kern
*M4/4	*M4/4	*M4/4	*M4/4	*M4/4	*M4/4	*M4/4	*M4/4	*M4/4	*M4/4
=1	=1	=1	=1	=1	=1	=1	=1	=1	=1
[2C	[2c	[2C	[2c	2ccT	[2ccT	[2c	[2cc	[2cc	[2ccc
8C]	8c]	8C]	8c]	8d	8cc]	8c]	8cc]	8cc]	8ccc]
8D	8d	8D	8d	8c	8ddT	8d	8dd	8dd	8ddd
8C	8c	8C	8c	4a	8ccT	8c	8cc	8cc	8ccc
8AA	8A	8AA	8A	.	8aT	8e	8a	8a	8aa
=2	=2	=2	=2	=2	=2	=2	=2	=2	=2
4C	4c	4C	4c	4ccT	4ccT	4c	4cc	4cc	4ccc
4D	4d	4D	4d	4ddT	4ddT	16.d	16.dd	4dd	4ddd
.	.	.	.	.	.	16.c	16.cc	.	.
.	.	.	.	.	.	16c	16cc	.	.
[2F	[2f	[2d	[2f	[2ffT	[2ffT	[2f	[2dd	[2ff	[2ddd
=3	=3	=3	=3	=3	=3	=3	=3	=3	=3
2F_	2f_	2d_	2f_	2.ff]	2.ff]	2f_	2dd_	2ff_	2ddd_
8F]	8f]	8d]	8f]	.	.	8f]	8dd]	8ff]	8ddd]
8r	8r	8r	8r	.	.	8r	8r	8r	8r
4r	4r	4r	4r	4r	4r	4r	4r	4r	4r
=4	=4	=4	=4	=4	=4	=4	=4	=4	=4
4C	4c	4C	4c	4cc	4cc	4c	4cc	4cc	4ccc
4AA	4A	4AA	4A	4a	4a	4e	4a	4ee	4aa
2C	2c	2C	2c	2cc	2ccT	2c	2cc	2cc	2ccc
=5	=5	=5	=5	=5	=5	=5	=5	=5	=5
4.FF	4.F	4.FF	4.F	4f	4.ff	4.c	4.f	4.cc	4.ff
.	.	.	.	4gS	.	.	.	.	.
8GG	8G	8GG	8G	.	8ggS	8d	8g	8dd	8gg
4AA	4A	4AA	4A	4a	4aa	4e	4a	4.ee	4.aa
4C	4c	4C	4c	4cc	4ccc	4c	4c	8cc	8cc
=6	=6	=6	=6	=6	=6	=6	=6	=6	=6
8GG	8G	8GG	8G	8gM	8ggM	8d	8g	8dd	8gg
8AA	8A	8AA	8A	8cc	8aa	8e	8a	8ee	8aa
8GG	8G	8GG	8G	8gM	8ggM	8d	8g	8dd	8gg
8FF	8F	8FF	8F	8f	8ff	8c	8f	8cc	8ff
2FF	2F	4FF	4F	4f	2ff	2G	2c	2cc	2ff
.	.	16G	16G	8gM	.	.	.	.	.
.	.	16A	16A	.	.	.	.	.	.
.	.	16G	16G	8f	.	.	.	.	.
.	.	16F	16F	.	.	.	.	.	.
=7	=7	=7	=7	=7	=7	=7	=7	=7	=7
4.DD	4.D	[4D	[4D	4d	4gg	4.A	4.d	8.dd	8.dd
.	.	.	.	.	.	.	.	16cc	16cc
.	.	16D]	16D]	4f	8dd	.	.	8dd	8dd
.	.	16C	16C	.	.	.	.	.	.
8FF	8F	16D	16D	.	8ff	8G	8c	8ff	8ff
.	.	16F	16F	.	.	.	.	.	.
2GG	2G	2GG	2G	4g	2gg	2d	2g	2g	2gg
.	.	.	.	4g	.	.	.	.	.
=8	=8	=8	=8	=8	=8	=8	=8	=8	=8
4AA	4A	16A	16A	4a	8aa	16f	8a	8aa	8aa
.	.	16G	16G	.	.	16a	.	.	.
.	.	16F	16F	.	8gg	16a	8g	8gg	8gg
.	.	16G	16G	.	.	16a	.	.	.
4C	4c	8A	8A	4cc	8aa	16c	8a	8aa	8aa
.	.	.	.	.	.	16cc	.	.	.
.	.	8C	8c	.	8cc	8cc	8cc	8ccc	8ccc
8D	8d	8D	8d	8dd	8dd	8dd	8dd	8ddd	8ddd
8D	8d	8F	8f	8f	8ff	8dd	8ff	8ddd	8ddd
8D	8d	8G	16g	8g	8.gg	8g	8dd	8gg	8ddd
.	.	.	16f	.	.	.	.	.	.
8D	8d	8G	16g	8f	.	8dd	8ff	8ddd	8dd
.	.	.	16f	.	16ff	.	.	.	.
=9	=9	=9	=9	=9	=9	=9	=9	=9	=9
4D	4d	4D	4d	4dd	8.dd	16d	4dd	4ddd	4ddd
.	.	.	.	.	.	16dd	.	.	.
.	.	.	.	.	.	8dd	.	.	.
.	.	.	.	.	16cc	.	.	.	.
4C	4c	4C	4c	4cc	16a	16a	4cc	4ccc	4ccc
.	.	.	.	.	16cc	16cc	.	.	.
.	.	.	.	.	8dd	8cc	.	.	.
4AA	4A	4AA	4A	4a	16a	4a	4a	4aa	4aa
.	.	.	.	.	32.cc	.	.	.	.
.	.	.	.	.	32.dd	.	.	.	.
.	.	.	.	.	32cc	.	.	.	.
.	.	.	.	.	16a	.	.	.	.
4GG	4G	4GG	4G	4gM	8g	8f	4g	4gg	4gg
.	.	.	.	.	8r	8g	.	.	.
=10	=10	=10	=10	=10	=10	=10	=10	=10	=10
4AA	4A	4AA	4A	4a	4a	16a	4a	4aa	4aa
.	.	.	.	.	.	16cc	.	.	.
.	.	.	.	.	.	16cc	.	.	.
.	.	.	.	.	.	16cc	.	.	.
4C	4c	4C	4c	4cc	4ccT	16c	4cc	4ccc	4ccc
.	.	.	.	.	.	16cc	.	.	.
.	.	.	.	.	.	8cc	.	.	.
4D	4d	4D	4d	4dd	4dd	8dd	4dd	4ddd	4ddd
.	.	.	.	.	.	8dd	.	.	.
4G	4g	4G	4g	4g	4gg	8g	8dd	4gg	4dd
.	.	.	.	.	.	8dd	8dd	.	.
=11	=11	=11	=11	=11	=11	=11	=11	=11	=11
4F	4f	4F	4f	8f	8.ff	4dd	4ff	4ddd	4ddd
.	.	.	.	8e	.	.	.	.	.
.	.	.	.	.	16dd	.	.	.	.
16.E	16.e	16.E	16.e	8d	4gg	16.e	16.ee	16.eee	16.eee
16.D	16.d	16.D	16.d	.	.	16.d	16.dd	16.ddd	16.ddd
.	.	.	.	8c	.	.	.	.	.
16C	16c	16C	16c	.	.	16c	16cc	16ccc	16ccc
4.D	4.d	4.D	4.d	[2d	[2dd	4.d	4.dd	4.ddd	4.ddd
16C	16C	16A	16A	.	.	16d	16d	16aa	16aa
16D	16D	16c	16c	.	.	16f	16f	16ccc	16ccc
=12	=12	=12	=12	=12	=12	=12	=12	=12	=12
16F	16F	16d	16d	8d]	8dd]	16f	16f	16ddd	16ddd
16D	16D	16c	16c	.	.	16d	16d	16ccc	16ccc
16C	16C	16A	16A	8f	8cc	16c	16c	16aa	16aa
16D	16D	16c	16c	.	.	16d	16d	16ccc	16ccc
8D	8D	8d	8d	8f	8dd	16d	16d	8ddd	8ddd
.	.	.	.	.	.	16c	16c	.	.
8F	8F	16F	16F	8gM	16.ff	16f	16f	16ff	16ff
.	.	16G	16G	.	.	16g	16g	16gg	16gg
.	.	.	.	.	32gg	.	.	.	.
4A	4A	4A	4A	4a	4aa	4a	4a	4aa	4aa
8.c	8.c	8.c	8.c	4cc	8dd	4c	4c	8.ccc	8.ccc
.	.	.	.	.	16.ff	.	.	.	.
16F	16F	16F	16F	.	.	.	.	16ff	16ff
.	.	.	.	.	32gg	.	.	.	.
=13	=13	=13	=13	=13	=13	=13	=13	=13	=13
8G	8G	16G	16G	8g	8aa	16g	16g	8gg	8gg
.	.	16A	16A	.	.	16a	16a	.	.
8A	8A	16c	16c	8b	8ccc	8cc	8cc	16.aa	16.aa
.	.	16d	16d	.	.	.	.	.	.
.	.	.	.	.	.	.	.	32ff	32ff
8G	8G	16c	16c	8gM	16aa	16g	16g	8gg	8gg
.	.	16A	16A	.	16gg	16f	16f	.	.
8F	8F	16G	16G	8f	8ff	8g	8g	8ff	8ff
.	.	16F	16F	.	.	.	.	.	.
4.D	4.D	4.D	4.D	4.dd	[4dd	4.d	4a	4dd	4dd
.	.	.	.	.	16.dd]	.	16ff	16ff	16ff
.	.	.	.	.	.	.	16cc	16cc	16cc
.	.	.	.	.	16cc	.	.	.	.
16C	16C	16C	16C	8a	.	8f	16dd	16dd	16dd
.	.	.	.	.	16.dd	.	.	.	.
16D	16D	16D	16D	.	.	.	16ff	16ff	16ff
=14	=14	=14	=14	=14	=14	=14	=14	=14	=14
16F	16F	16D	16D	16cc	4ff	16d	16d	16dd	16dd
16F	16F	16F	16F	16dd	.	16g	16g	16ff	16ff
16F	16F	16G	16G	16ee	.	16g	16g	16ff	16ff
16F	16F	16F	16F	16ff	.	16g	16g	16ff	16ff
8F	8F	8D	8D	8ee	8.dd	16d	16d	16ff	16ff
.	.	.	.	.	.	16g	16g	16gg	16gg
8C	8C	8C	8C	8dd	.	16d	16d	16gg	16gg
.	.	.	.	.	.	16g	16g	16gg	16gg
4.AA	4.A	4c	4f	8cc	16a	16f	4a	4aa	4aa
.	.	.	.	.	16cc	16a	.	.	.
.	.	.	.	8a	8a	16a	.	.	.
.	.	.	.	.	.	16a	.	.	.
.	.	4A	4f	4g	16g	16f	4g	4gg	4gg
.	.	.	.	.	16cc	16g	.	.	.
8GG	8G	.	.	.	8g	16g	.	.	.
.	.	.	.	.	.	16g	.	.	.
=15	=15	=15	=15	=15	=15	=15	=15	=15	=15
8AA	8A	8F	8f	4a	8.a	16a	4a	4aa	4aa
.	.	.	.	.	.	16cc	.	.	.
16C	16c	16E	16E	.	.	16cc	.	.	.
16D	16d	16F	16F	.	16cc	16cc	.	.	.
8E	8e	16E	16E	4cc	4ee	16c	4cc	4ccc	4ccc
.	.	16A	16A	.	.	16cc	.	.	.
8C	8c	8E	8E	.	.	16cc	.	.	.
.	.	.	.	.	.	16cc	.	.	.
[2D	[2d	[2D	[2D	[2dd	[2dd	[2d	[2dd	[2ddd	[2ddd
=16	=16	=16	=16	=16	=16	=16	=16	=16	=16
4D]	4d]	4D]	4D]	4r]	4dd]	4d]	4dd]	4ddd]	4ddd]
4A	4c	4C	4c	4c	8.cc	4c	4cc	4ccc	4ccc
.	.	.	.	.	16a	.	.	.	.
4.A	4.c	4.C	4.c	8cc	4.cc	4.c	4.cc	4.ccc	4.ccc
.	.	.	.	8ff	.	.	.	.	.
.	.	.	.	4ff	.	.	.	.	.
8F	8f	8F	8f	.	8ff	8d	8dd	8ff	8ddd
=17	=17	=17	=17	=17	=17	=17	=17	=17	=17
8D	8d	8D	8d	8dd	8.dd	8d	8dd	8ddd	8ddd
8C	8c	8C	8c	8cc	.	8c	8cc	8ccc	8ccc
.	.	.	.	.	32cc	.	.	.	.
.	.	.	.	.	32g	.	.	.	.
16.AA	16.A	16.AA	16.A	16.a	8aa	16.e	16.a	16.aa	16.aa
16.GG	16.G	16.GG	16.F	16.g	.	16.d	16.g	16.cc	16.ccc
.	.	.	.	.	16gg	.	.	.	.
16FF	16F	16FF	16F	16f	16ff	16c	16f	16a	16aa
[2GG	[2G	[2GG	[2G	[2g	[2gg	[2d	[2g	[2gg	[2gg
=18	=18	=18	=18	=18	=18	=18	=18	=18	=18
4GG]	4G]	4GG]	4G]	4g]	8gg]	4d]	4g]	4gg]	4gg]
.	.	.	.	.	4cc	.	.	.	.
4A	4c	4C	4c	4cc	.	4c	4cc	4ccc	4ccc
.	.	.	.	.	8a	.	.	.	.
4.A	4.c	4.C	4.c	8cc	4.cc	4.c	4.cc	4.ccc	4.ccc
.	.	.	.	8ff	.	.	.	.	.
.	.	.	.	4ffM	.	.	.	.	.
8F	8f	8F	8f	.	8ff	8d	8dd	8ff	8ddd
=19	=19	=19	=19	=19	=19	=19	=19	=19	=19
4D	4d	4D	4d	8dd	8.dd	4d	4dd	4ddd	4ddd
.	.	.	.	8cc	.	.	.	.	.
.	.	.	.	.	16cc	.	.	.	.
16.AA	16.A	16.AA	16.A	16.a	16aa	16.e	16.a	16.aa	16.aa
.	.	.	.	.	16gg	.	.	.	.
16.GG	16.G	16.GG	16.G	16.g	.	16.d	16.g	16.cc	16.ccc
.	.	.	.	.	8ff	.	.	.	.
16FF	16F	16FF	16F	16f	.	16c	16f	16a	16aa
4GG	[4G	4.GG	4.G	4g	4gg	4.d	4.g	4.gg	4.gg
16G	16G]	.	.	8a	16dd	.	.	.	.
16F	16F	.	.	.	16cc	.	.	.	.
16D	16D	16D	16D	8cc	16dd	8d	8d	16dd	16dd
16F	16F	16F	16F	.	16gg	.	.	16ff	16ff
=20	=20	=20	=20	=20	=20	=20	=20	=20	=20
16G	16G	16G	16G	4g	4aa	16g	16g	16gg	16gg
16A	16A	16A	16A	.	.	16a	16a	16aa	16aa
16c	16c	8c	8c	.	.	16g	16g	16gg	16gg
16A	16A	.	.	.	.	16cc	16cc	16ccc	16ccc
16c	16c	16c	16c	4f	16gg	16g	16g	16gg	16gg
16A	16A	16A	16A	.	16ff	16a	16a	16ccc	16ccc
16G	16G	16G	16G	.	16dd	16g	16g	16gg	16gg
16F	16F	16F	16F	.	16cc	16cc	16cc	16ff	16ff
8D	8D	8D	8D	4d	8dd	8d	8d	8dd	8dd
8C	8c	8C	8c	.	8cc	8c	8cc	8ccc	8ccc
8D	8d	8D	8d	8dd	16.dd	8d	8dd	8ddd	8ddd
.	.	.	.	.	16.ff	.	.	.	.
8C	8c	8C	8c	8cc	.	8c	8cc	8ccc	8ccc
.	.	.	.	.	16gg	.	.	.	.
=21	=21	=21	=21	=21	=21	=21	=21	=21	=21
4AA	4A	4AA	4A	4aM	4aa	4A	4a	4aa	4aa
4GG	4G	4GG	4G	4gM	4gg	4G	4g	4gg	4gg
2FF	2F	2FF	2F	2fM	2ff	2F	2f	2ff	2ff
====	====	====	====	====	====	====	====	====	====
*-	*-	*-	*-	*-	*-	*-	*-	*-	*-
